X: 1
T:no name
R:jig
Z:id:hn-jig-264
M:6/8
K:G
DGG A2G|A2G ~G2F|DGG A2G|cAG ~F3|
DGG A2G|A2F GBd|~f3 ged|cAG FGA:|
|:~B3 cBc|dcA ~G3|~B3 GBd|cAG FGA|
~B3 cBc|d^cd efg|a2f gfd|1 cAF G2A:|2 cAF G2F||
